src/Pure/16/symbolic/actions/view-grid-symbolic.svg

<svg width="16" height="16" enable-background="new" version="1.1" xmlns="http://www.w3.org/2000/svg">
 <g fill="#363636">
  <path d="m2 2c-0.554 0-1 0.446-1 1v4c0 0.554 0.446 1 1 1h4c0.554 0 1-0.446 1-1v-4c0-0.554-0.446-1-1-1zm0 1h4v4h-4z"/>
  <path d="m9 2c-0.554 0-1 0.446-1 1v4c0 0.554 0.446 1 1 1h4c0.554 0 1-0.446 1-1v-4c0-0.554-0.446-1-1-1zm0 1h4v4h-4z"/>
  <path d="m2 9c-0.554 0-1 0.446-1 1v4c0 0.554 0.446 1 1 1h4c0.554 0 1-0.446 1-1v-4c0-0.554-0.446-1-1-1zm0 1h4v4h-4z"/>
  <path d="m9 9c-0.554 0-1 0.446-1 1v4c0 0.554 0.446 1 1 1h4c0.554 0 1-0.446 1-1v-4c0-0.554-0.446-1-1-1zm0 1h4v4h-4z"/>
 </g>
</svg>

<?xml version="1.0" encoding="UTF-8" standalone="no"?>
<svg
   width="16"
   height="16"
   enable-background="new"
   version="1.1"
   id="svg4"
   sodipodi:docname="view-grid-symbolic.svg"
   inkscape:version="1.4.2 (ebf0e940d0, 2025-05-08)"
   xmlns:inkscape="http://www.inkscape.org/namespaces/inkscape"
   xmlns:sodipodi="http://sodipodi.sourceforge.net/DTD/sodipodi-0.dtd"
   xmlns="http://www.w3.org/2000/svg"
   xmlns:svg="http://www.w3.org/2000/svg">
  <defs
     id="defs4">
     <style
        id="current-color-scheme"
        type="text/css">
        .ColorScheme-Text { color:#363636; }
     </style>
  </defs>
  <sodipodi:namedview
     id="namedview4"
     pagecolor="#ffffff"
     bordercolor="#000000"
     borderopacity="0.25"
     inkscape:showpageshadow="2"
     inkscape:pageopacity="0.0"
     inkscape:pagecheckerboard="0"
     inkscape:deskcolor="#d1d1d1"
     inkscape:zoom="49.6875"
     inkscape:cx="8"
     inkscape:cy="8"
     inkscape:window-width="1920"
     inkscape:window-height="1010"
     inkscape:window-x="0"
     inkscape:window-y="0"
     inkscape:window-maximized="1"
     inkscape:current-layer="svg4" />
  <path
     id="path1"
     style="fill:currentColor"
     class="ColorScheme-Text"
     d="M 2 2 C 1.446 2 1 2.446 1 3 L 1 7 C 1 7.554 1.446 8 2 8 L 6 8 C 6.554 8 7 7.554 7 7 L 7 3 C 7 2.446 6.554 2 6 2 L 2 2 z M 9 2 C 8.446 2 8 2.446 8 3 L 8 7 C 8 7.554 8.446 8 9 8 L 13 8 C 13.554 8 14 7.554 14 7 L 14 3 C 14 2.446 13.554 2 13 2 L 9 2 z M 2 3 L 6 3 L 6 7 L 2 7 L 2 3 z M 9 3 L 13 3 L 13 7 L 9 7 L 9 3 z M 2 9 C 1.446 9 1 9.446 1 10 L 1 14 C 1 14.554 1.446 15 2 15 L 6 15 C 6.554 15 7 14.554 7 14 L 7 10 C 7 9.446 6.554 9 6 9 L 2 9 z M 9 9 C 8.446 9 8 9.446 8 10 L 8 14 C 8 14.554 8.446 15 9 15 L 13 15 C 13.554 15 14 14.554 14 14 L 14 10 C 14 9.446 13.554 9 13 9 L 9 9 z M 2 10 L 6 10 L 6 14 L 2 14 L 2 10 z M 9 10 L 13 10 L 13 14 L 9 14 L 9 10 z " />
</svg>
